X: 1190
T: Nifty's freylekhs
C:Naftule Brandwein
B: ralph
B: to learn
M:2/4
L:1/8
R: freylach
Q: 1/4=100
K:DPhr
V:1 
zA,2 \
|  "D"D2        zD | "Cm"E2 zE |  "D"^F2 zA | "Cm"G^F ED \
|  "D"{^G=B}A2 ^F2 | "Cm"ED EG |  "D"^F4    | (3AG^F "Cm"(3EDC |
| "D"D2        zD | "Cm"E2 zE |  "D"^F2 zA | "Cm"G^F ED \
|  "D"{^G=B}A2 ^F2 | "Cm"ED CE |  "D"D4-    | D :|
|: z3 \
| "Gm"zd dd | dd dd | "Cm"cd ed | cB AG \
|  "D"{^G=B}A2 ^F2 | "Cm"GF GB |  "D"A4- | A4 |
| "Gm"zd dd | dd dd | "Cm"cd ed | cB AG \
|  "D"{^G=B}A2 ^F2 | "Cm"ED CE |  "D"D4-  | D  :|
|: "D7"DGA \
| "Gm"B4- | BB AG | "D7"A4 | zD^FG \
| A4 | zD B/A/G/^F/ | "Gm"G4 | "D7"zDGA |
| "Gm"B3 D | (3BAG (3^FED | "Cm"C4 | c3 c \
| cA/c/ (3BAG | "D"(3^FGA "Cm"(3GFE |1 "D"D4- | D :|2 "D"(3DE^F "Cm"(3EDC | "D"D ||
% abcbook-tune_id 634540698905240d28572436
% abcbook-link-0 https://www.youtube.com/watch?v=fdsMj6g-lts
% abcbook-link-title-0 Nifty&#39;s freylekhs: the London Klezmer Quartet

% abcbook-boost 0
% abcbook-tablature 
% abcbook-transpose 
% abcbook-lastupdated 1666789882581
% abcbook-soundfonts 
% abcbook-repeats 3


